fs/animal_turtle_16_regular.svg

<svg viewBox="0 0 16 16" fill="none" xmlns="http://www.w3.org/2000/svg" height="1em" width="1em">
  <path d="M7.34259 3.98828C5.48655 3.98828 4.31086 5.30422 3.85938 6.79593L3.7989 6.99576H2.49707C2.22093 6.99576 1.99707 7.21962 1.99707 7.49576C1.99707 8.18121 2.18661 8.82377 2.51905 9.30888C2.63603 9.47959 2.77517 9.63601 2.93368 9.76691L2.63531 10.4916C2.40519 11.0505 2.67179 11.6902 3.23072 11.9202C3.36289 11.9747 3.50443 12.0026 3.64735 12.0026H4.72044C5.1444 12.0026 5.53024 11.7578 5.71075 11.3742L6.01427 10.7291C6.92601 10.8466 7.84783 10.8464 8.75954 10.7286L9.0633 11.3742C9.24381 11.7578 9.62965 12.0026 10.0536 12.0026H11.116C11.2591 12.0026 11.4008 11.9746 11.5331 11.92C12.092 11.6897 12.3582 11.0499 12.1278 10.4911L11.9259 10.0013H12.8909C13.5084 10.0013 14.0028 9.47685 14.0028 8.86928V8.24954C14.0028 7.30885 13.2694 6.49942 12.3126 6.49942H10.8486C10.3155 5.11427 9.05582 3.98828 7.34259 3.98828ZM11.5873 9.00126L11.1536 7.49942H12.3126C12.6704 7.49942 13.0028 7.81327 13.0028 8.24954V8.86928C13.0028 8.90265 12.9889 8.93775 12.9618 8.96564C12.9343 8.99388 12.9069 9.00126 12.8909 9.00126H11.5873ZM10.9324 10.2153L11.2033 10.8723C11.2232 10.9204 11.2002 10.9756 11.152 10.9955C11.1406 11.0002 11.1284 11.0026 11.116 11.0026H10.0536C10.017 11.0026 9.98371 10.9815 9.96814 10.9484L9.77913 10.5467C10.1674 10.4581 10.5524 10.3476 10.9324 10.2153ZM4.99456 10.5475L4.80591 10.9484C4.79034 10.9815 4.75705 11.0026 4.72044 11.0026H3.64735C3.63501 11.0026 3.62279 11.0002 3.61139 10.9955C3.56314 10.9757 3.54017 10.9205 3.56001 10.8723L3.83153 10.2128C4.21478 10.3466 4.60301 10.4581 4.99456 10.5475ZM3.49623 7.99576L3.29362 8.66519C3.18329 8.48171 3.09533 8.25417 3.04469 7.99576H3.49623ZM4.8165 7.08562C5.18305 5.87455 6.05891 4.98828 7.34259 4.98828C8.64735 4.98828 9.63239 5.89847 9.99233 7.08254L10.6224 9.26433C8.52141 10.0002 6.25724 10.0015 4.15627 9.26699L4.8165 7.08562Z" fill="#212121"/>
</svg>

<svg viewBox="0 0 16 16" fill="none" xmlns="http://www.w3.org/2000/svg" height="1em" width="1em">
  <path d="M7.343 3.988c-1.856 0-3.032 1.316-3.484 2.808l-.06.2H2.497a.5.5 0 0 0-.5.5c0 .685.19 1.328.522 1.813.117.17.256.327.415.458l-.299.725a1.094 1.094 0 0 0 1.012 1.51H4.72c.424 0 .81-.244.99-.628l.304-.645a10.72 10.72 0 0 0 2.746 0l.303.645c.18.384.567.629.99.629h1.063a1.093 1.093 0 0 0 1.012-1.512l-.202-.49h.965c.617 0 1.112-.524 1.112-1.132v-.62c0-.94-.734-1.75-1.69-1.75h-1.464c-.534-1.385-1.793-2.51-3.506-2.51Zm4.244 5.013L11.154 7.5h1.159c.357 0 .69.314.69.75v.62a.14.14 0 0 1-.041.097c-.028.028-.055.035-.071.035h-1.304Zm-.655 1.214.271.657a.094.094 0 0 1-.087.13h-1.062a.094.094 0 0 1-.086-.054l-.189-.401c.388-.089.773-.2 1.153-.332Zm-5.937.332-.19.401a.094.094 0 0 1-.085.055H3.647a.094.094 0 0 1-.087-.13l.272-.66c.383.134.771.245 1.163.335ZM3.496 7.996l-.202.67a2.082 2.082 0 0 1-.25-.67h.452Zm1.32-.91c.367-1.211 1.243-2.098 2.527-2.098 1.304 0 2.29.91 2.65 2.095l.63 2.181a9.754 9.754 0 0 1-6.467.003l.66-2.181Z" fill="#212121"/>
</svg>
